incomeartour/img/icons/search.svg

<svg width="28" height="26" viewBox="0 0 28 26" fill="none" xmlns="http://www.w3.org/2000/svg">
<path d="M14.2174 16.1572C13.8269 15.7667 13.1937 15.7667 12.8032 16.1572C12.4127 16.5477 12.4127 17.1809 12.8032 17.5714L14.2174 16.1572ZM17.5411 22.3093C17.9316 22.6999 18.5648 22.6999 18.9553 22.3093C19.3458 21.9188 19.3458 21.2857 18.9553 20.8951L17.5411 22.3093ZM12.8032 17.5714L17.5411 22.3093L18.9553 20.8951L14.2174 16.1572L12.8032 17.5714ZM3 12.3196C3 16.0296 6.00749 19.0371 9.71741 19.0371V17.0371C7.11206 17.0371 5 14.925 5 12.3196H3ZM9.71741 19.0371C13.4273 19.0371 16.4348 16.0296 16.4348 12.3196H14.4348C14.4348 14.925 12.3228 17.0371 9.71741 17.0371V19.0371ZM16.4348 12.3196C16.4348 8.60972 13.4273 5.60223 9.71741 5.60223V7.60223C12.3228 7.60223 14.4348 9.71429 14.4348 12.3196H16.4348ZM9.71741 5.60223C6.00749 5.60223 3 8.60972 3 12.3196H5C5 9.71429 7.11206 7.60223 9.71741 7.60223V5.60223Z" fill="black"/>
</svg>

<svg width="28" height="26" fill="none" xmlns="http://www.w3.org/2000/svg"><path d="M14.217 16.157a1 1 0 00-1.414 1.414l1.414-1.414zm3.324 6.152a1 1 0 101.414-1.414l-1.414 1.414zm-4.738-4.738l4.738 4.738 1.414-1.414-4.738-4.738-1.414 1.414zM3 12.32a6.717 6.717 0 006.717 6.717v-2A4.717 4.717 0 015 12.32H3zm6.717 6.717a6.717 6.717 0 006.718-6.717h-2a4.717 4.717 0 01-4.718 4.717v2zm6.718-6.717a6.717 6.717 0 00-6.718-6.718v2a4.717 4.717 0 014.718 4.718h2zM9.717 5.602A6.717 6.717 0 003 12.32h2a4.717 4.717 0 014.717-4.718v-2z" fill="#000"/></svg>
